src/assets/img/Security/icons/starsicon.svg

<svg width="34" height="34" viewBox="0 0 34 34" fill="none" xmlns="http://www.w3.org/2000/svg">
<g id="Icon">
<g id="Vector">
<path fill-rule="evenodd" clip-rule="evenodd" d="M12.75 6.375C13.2244 6.375 13.6413 6.68948 13.7716 7.14561L14.9236 11.1777C15.4279 12.9426 16.8074 14.3221 18.5723 14.8264L22.6044 15.9784C23.0605 16.1087 23.375 16.5256 23.375 17C23.375 17.4744 23.0605 17.8913 22.6044 18.0216L18.5723 19.1736C16.8074 19.6779 15.4279 21.0574 14.9236 22.8223L13.7716 26.8544C13.6413 27.3105 13.2244 27.625 12.75 27.625C12.2756 27.625 11.8587 27.3105 11.7284 26.8544L10.5764 22.8223C10.0721 21.0574 8.69256 19.6779 6.92771 19.1736L2.89561 18.0216C2.43948 17.8913 2.125 17.4744 2.125 17C2.125 16.5256 2.43948 16.1087 2.89561 15.9784L6.92771 14.8264C8.69257 14.3221 10.0721 12.9426 10.5764 11.1777L11.7284 7.14561C11.8587 6.68948 12.2756 6.375 12.75 6.375Z" fill="#CAFF33"/>
<path fill-rule="evenodd" clip-rule="evenodd" d="M25.5 2.125C25.9875 2.125 26.4125 2.45682 26.5308 2.92981L26.8975 4.39671C27.2306 5.72908 28.2709 6.7694 29.6033 7.1025L31.0702 7.46922C31.5432 7.58747 31.875 8.01245 31.875 8.5C31.875 8.98755 31.5432 9.41253 31.0702 9.53078L29.6033 9.8975C28.2709 10.2306 27.2306 11.2709 26.8975 12.6033L26.5308 14.0702C26.4125 14.5432 25.9875 14.875 25.5 14.875C25.0125 14.875 24.5875 14.5432 24.4692 14.0702L24.1025 12.6033C23.7694 11.2709 22.7291 10.2306 21.3967 9.8975L19.9298 9.53078C19.4568 9.41253 19.125 8.98755 19.125 8.5C19.125 8.01245 19.4568 7.58747 19.9298 7.46922L21.3967 7.1025C22.7291 6.7694 23.7694 5.72908 24.1025 4.39671L24.4692 2.92981C24.5875 2.45682 25.0125 2.125 25.5 2.125Z" fill="#CAFF33"/>
<path fill-rule="evenodd" clip-rule="evenodd" d="M23.375 21.25C23.8323 21.25 24.2384 21.5426 24.383 21.9765L24.9415 23.652C25.153 24.2866 25.6509 24.7845 26.2855 24.996L27.961 25.5545C28.3949 25.6991 28.6875 26.1052 28.6875 26.5625C28.6875 27.0198 28.3949 27.4259 27.961 27.5705L26.2855 28.129C25.6509 28.3405 25.153 28.8384 24.9415 29.473L24.383 31.1485C24.2384 31.5824 23.8323 31.875 23.375 31.875C22.9177 31.875 22.5116 31.5824 22.367 31.1485L21.8085 29.473C21.597 28.8384 21.0991 28.3405 20.4645 28.129L18.789 27.5705C18.3551 27.4259 18.0625 27.0198 18.0625 26.5625C18.0625 26.1052 18.3551 25.6991 18.789 25.5545L20.4645 24.996C21.0991 24.7845 21.597 24.2866 21.8085 23.652L22.367 21.9765C22.5116 21.5426 22.9177 21.25 23.375 21.25Z" fill="#CAFF33"/>
</g>
</g>
</svg>

<svg width="34" height="34" fill="none" xmlns="http://www.w3.org/2000/svg"><g fill-rule="evenodd" clip-rule="evenodd" fill="#CAFF33"><path d="M12.75 6.375c.474 0 .891.314 1.022.77l1.152 4.033a5.313 5.313 0 0 0 3.648 3.648l4.032 1.152a1.062 1.062 0 0 1 0 2.044l-4.032 1.152a5.313 5.313 0 0 0-3.648 3.648l-1.152 4.032a1.062 1.062 0 0 1-2.044 0l-1.152-4.032a5.313 5.313 0 0 0-3.648-3.648l-4.032-1.152a1.062 1.062 0 0 1 0-2.044l4.032-1.152a5.313 5.313 0 0 0 3.648-3.648l1.152-4.032c.13-.457.548-.771 1.022-.771ZM25.5 2.125c.488 0 .913.332 1.03.805l.367 1.467a3.719 3.719 0 0 0 2.706 2.705l1.467.367a1.062 1.062 0 0 1 0 2.062l-1.467.367a3.719 3.719 0 0 0-2.706 2.705l-.366 1.467a1.063 1.063 0 0 1-2.062 0l-.367-1.467a3.719 3.719 0 0 0-2.705-2.705L19.93 9.53a1.062 1.062 0 0 1 0-2.062l1.467-.367a3.719 3.719 0 0 0 2.706-2.705l.366-1.467a1.063 1.063 0 0 1 1.031-.805ZM23.375 21.25c.457 0 .863.293 1.008.727l.559 1.675c.211.635.709 1.133 1.343 1.344l1.676.559a1.062 1.062 0 0 1 0 2.015l-1.675.559a2.125 2.125 0 0 0-1.345 1.344l-.558 1.675a1.062 1.062 0 0 1-2.016 0l-.559-1.675a2.125 2.125 0 0 0-1.343-1.344l-1.676-.559a1.062 1.062 0 0 1 0-2.015l1.675-.559a2.125 2.125 0 0 0 1.345-1.344l.558-1.675c.145-.434.55-.727 1.008-.727Z"/></g></svg>
